carriers/postIt.svg

<svg width="128" height="64" viewBox="0 0 128 64" fill="none" xmlns="http://www.w3.org/2000/svg">
<rect width="128" height="64" rx="6" fill="#EEDC00"/>
<path fill-rule="evenodd" clip-rule="evenodd" d="M54.6777 34.7455C54.6777 35.9876 54.9848 37.0372 56.346 37.0372C57.3635 37.0372 57.996 36.5789 58.1289 35.6622H61.5023C61.4375 36.2244 61.2367 36.7624 60.9173 37.2296C60.5978 37.6968 60.1694 38.0791 59.6689 38.3435C58.7434 38.8741 57.687 39.133 56.621 39.0906C52.7664 39.0906 51.2356 37.4406 51.2356 33.673C51.2356 30.6297 53.5273 28.9064 56.4102 28.9064C60.3198 28.9064 61.5664 31.1476 61.5664 34.7272L54.6777 34.7455ZM58.1289 32.793C58.1289 32.2788 57.9687 31.7774 57.6706 31.3585C57.5345 31.1517 57.3452 30.9855 57.1226 30.8774C56.8999 30.7693 56.6522 30.7233 56.4056 30.7443C55.1406 30.7993 54.8335 31.7022 54.7373 32.793H58.1106" fill="#0047BB"/>
<path fill-rule="evenodd" clip-rule="evenodd" d="M9 38.8153V24.9966H15.3663C18.7579 24.9966 20.9808 26.0874 20.9808 29.4378C20.9808 32.7883 18.7579 33.8791 15.3663 33.8791H12.8363V38.8153H9ZM14.8071 31.1978C16.3242 31.1428 16.9567 30.4508 16.9567 29.4378C16.9567 28.4249 16.3333 27.7374 14.8071 27.6778H12.8363V31.1978H14.8071Z" fill="#0047BB"/>
<path fill-rule="evenodd" clip-rule="evenodd" d="M32.3065 34.0121C32.3065 37.5505 29.7169 39.1042 26.7056 39.1042C23.6944 39.1042 21.1094 37.5505 21.1094 34.0121C21.1094 30.4738 23.699 28.92 26.7056 28.92C29.7123 28.92 32.3065 30.4738 32.3065 34.0121ZM26.7056 36.9959C28.2411 36.9959 28.5665 35.3688 28.5665 34.0121C28.5665 32.6555 28.2411 31.0284 26.7056 31.0284C25.1702 31.0284 24.8723 32.6555 24.8723 34.0121C24.8723 35.3688 25.1977 36.9959 26.7056 36.9959Z" fill="#0047BB"/>
<path fill-rule="evenodd" clip-rule="evenodd" d="M38.6499 32.1741C38.6744 31.8877 38.5928 31.6022 38.4207 31.372C38.2894 31.2467 38.1325 31.1511 37.9609 31.0918C37.7893 31.0325 37.6069 31.0108 37.4262 31.0282C37.2197 31.0063 37.013 31.0667 36.8508 31.1962C36.6886 31.3258 36.5841 31.5141 36.5599 31.7203C36.5553 31.7767 36.5553 31.8335 36.5599 31.8899C36.5599 32.5957 38.0357 32.5591 40.3183 33.2649C40.9071 33.3941 41.4287 33.7333 41.7856 34.2192C42.1424 34.7051 42.31 35.3044 42.257 35.9049C42.257 38.4532 39.8599 39.1132 37.6737 39.1132C35.3132 39.1132 33.0124 38.6549 33.0353 35.7032H36.5003C36.4773 35.8565 36.4879 36.013 36.5314 36.1618C36.575 36.3106 36.6504 36.4482 36.7524 36.5649C36.8545 36.6989 36.9844 36.8092 37.1331 36.8883C37.2818 36.9674 37.4459 37.0134 37.6141 37.0232C38.3245 37.0232 38.8424 36.7574 38.8424 36.1432C38.8424 34.4428 33.1499 35.4557 33.1499 31.9724C33.1499 29.5982 35.6799 28.9474 37.5957 28.9474C39.8874 28.9474 41.9866 29.5432 42.1378 32.2016H38.6866" fill="#0047BB"/>
<path fill-rule="evenodd" clip-rule="evenodd" d="M44.6541 29.2088V27.7559L48.2978 26.3809V29.2134H50.4062V31.505H48.2978V35.3138C48.2978 35.5613 48.142 36.8034 48.9853 36.8034C49.4535 36.8125 49.9218 36.7942 50.3878 36.7484V38.9117C49.7427 39.0352 49.0876 39.0996 48.4307 39.1042C45.9557 39.1042 44.4616 38.7559 44.6541 35.8088V31.505H42.7749V29.2134H44.6541" fill="#0047BB"/>
<path fill-rule="evenodd" clip-rule="evenodd" d="M63.1522 29.1126H64.9855V38.7376H63.1522V29.1126ZM62.978 24.8867H65.1551V26.8667H62.978V24.8867Z" fill="#0047BB"/>
<path fill-rule="evenodd" clip-rule="evenodd" d="M67.9098 29.1124V27.0591L69.7431 26.4816V29.1124L71.9706 29.0528V30.4278H69.7431V36.6199C69.7431 37.3074 70.2794 37.6328 70.9348 37.6328C71.2591 37.6337 71.5823 37.5953 71.8973 37.5182V38.9208C71.471 38.9208 71.0677 39.0353 70.646 39.0353C70.233 39.0399 69.8204 39.0077 69.4131 38.9391C68.989 38.8666 68.6059 38.6417 68.336 38.3066C68.0106 37.8482 67.9144 37.807 67.9144 36.5237V30.3957L66.2598 30.4187V29.0437L67.9144 29.1032" fill="#0047BB"/>
<path fill-rule="evenodd" clip-rule="evenodd" d="M79.1252 32.7975C79.1252 31.1291 79.029 30.1483 77.0857 30.1483C76.169 30.1483 75.2982 30.6846 75.2798 31.6837H73.3594C73.4511 29.5708 75.1057 28.8237 77.0261 28.8237C78.9465 28.8237 80.9677 29.4196 80.9677 32.1054V36.7117C80.9677 37.1379 80.9677 37.9446 81.0457 38.7467H79.8127C79.6386 38.7467 79.3132 38.8429 79.2948 38.6137C79.2536 38.1554 79.2169 37.7521 79.1986 37.3075H79.1573C78.8872 37.8618 78.4574 38.3225 77.9232 38.6305C77.389 38.9384 76.7748 39.0794 76.1598 39.0354C74.4869 39.0354 72.7957 38.1737 72.7957 36.2854C72.7957 33.5812 75.1973 32.7929 77.4844 32.7929L79.1252 32.7975ZM77.2919 34.0671C76.1736 34.1221 74.6932 34.5254 74.6932 35.9279C74.6932 37.115 75.5227 37.7108 76.5998 37.7108C78.754 37.7108 79.1573 35.85 79.1161 34.0442H77.2827" fill="#0047BB"/>
<path fill-rule="evenodd" clip-rule="evenodd" d="M82.7917 24.8867H84.6251V38.7467H82.7917V24.8867Z" fill="#0047BB"/>
<path fill-rule="evenodd" clip-rule="evenodd" d="M86.8805 29.1126H88.7139V38.7376H86.8805V29.1126ZM86.7109 24.8867H88.8834V26.8667H86.7109V24.8867Z" fill="#0047BB"/>
<path fill-rule="evenodd" clip-rule="evenodd" d="M96.7021 32.7975C96.7021 31.1291 96.6058 30.1483 94.6625 30.1483C93.7458 30.1483 92.875 30.6846 92.8567 31.6837H90.9317C91.0279 29.5708 92.6825 28.8237 94.5983 28.8237C96.5142 28.8237 98.54 29.4196 98.54 32.1054V36.7117C98.54 37.1379 98.54 37.9446 98.6179 38.7467H97.385C97.2108 38.7467 96.8854 38.8429 96.8671 38.6137C96.8258 38.1554 96.7892 37.7521 96.7708 37.3075H96.7296C96.4595 37.8618 96.0296 38.3225 95.4954 38.6305C94.9612 38.9384 94.3471 39.0794 93.7321 39.0354C92.0592 39.0354 90.3679 38.1737 90.3679 36.2854C90.3679 33.5812 92.7696 32.7929 95.0567 32.7929L96.7021 32.7975ZM94.8688 34.0671C93.7504 34.1221 92.27 34.5254 92.27 35.9279C92.27 37.115 93.0996 37.7108 94.1767 37.7108C96.3263 37.7108 96.7342 35.85 96.6929 34.0442H94.8596" fill="#0047BB"/>
<path fill-rule="evenodd" clip-rule="evenodd" d="M102.212 30.5333H102.248C102.54 30.0146 102.965 29.5828 103.479 29.2824C103.993 28.982 104.577 28.8237 105.172 28.8237C105.842 28.8237 108.839 28.9979 108.839 32.0871V38.7467H107.006V32.6829C107.006 31.0879 106.332 30.2262 104.797 30.2262C104.136 30.2198 103.5 30.4753 103.027 30.9366C102.757 31.2025 102.257 31.6287 102.257 33.5079V38.7467H100.424V29.1216H102.216V30.5425" fill="#0047BB"/>
<path fill-rule="evenodd" clip-rule="evenodd" d="M112.194 34.287C112.056 35.9737 112.748 37.7199 114.614 37.7199C116.039 37.7199 116.75 37.1654 116.96 35.7629H118.885C118.597 37.9537 116.905 39.0445 114.595 39.0445C111.502 39.0445 110.269 36.8583 110.269 34.0028C110.269 31.1474 111.694 28.8191 114.751 28.8191C117.625 28.8833 119 30.7074 119 33.3703V34.287H112.194ZM117.075 33.0174C117.116 31.4041 116.383 30.1574 114.614 30.1574C113.097 30.1574 112.194 31.4453 112.194 33.0174H117.075Z" fill="#0047BB"/>
</svg>

<svg xmlns="http://www.w3.org/2000/svg" width="128" height="64" fill="none"><rect width="128" height="64" fill="#EEDC00" rx="6"/><path fill="#0047BB" fill-rule="evenodd" d="M54.678 34.745c0 1.243.307 2.292 1.668 2.292 1.018 0 1.65-.458 1.783-1.375h3.373a3.484 3.484 0 0 1-1.833 2.681c-.926.531-1.982.79-3.048.748-3.855 0-5.385-1.65-5.385-5.418 0-3.043 2.291-4.767 5.174-4.767 3.91 0 5.156 2.242 5.156 5.821l-6.888.019Zm3.45-1.952c0-.514-.16-1.016-.457-1.434a1.375 1.375 0 0 0-1.265-.615c-1.265.055-1.572.958-1.669 2.049h3.374M9 38.815V24.997h6.366c3.392 0 5.615 1.09 5.615 4.44 0 3.351-2.223 4.442-5.615 4.442h-2.53v4.936H9Zm5.807-7.617c1.517-.055 2.15-.747 2.15-1.76s-.624-1.7-2.15-1.76h-1.97v3.52h1.97ZM32.306 34.012c0 3.538-2.59 5.092-5.6 5.092-3.012 0-5.597-1.553-5.597-5.092 0-3.538 2.59-5.092 5.597-5.092 3.006 0 5.6 1.554 5.6 5.092Zm-5.6 2.984c1.535 0 1.86-1.627 1.86-2.984 0-1.356-.325-2.984-1.86-2.984-1.536 0-1.834 1.628-1.834 2.984 0 1.357.326 2.984 1.834 2.984ZM38.65 32.174a1.173 1.173 0 0 0-.23-.802 1.264 1.264 0 0 0-.994-.344.789.789 0 0 0-.866.862c0 .706 1.476.67 3.758 1.375a2.48 2.48 0 0 1 1.939 2.64c0 2.548-2.397 3.208-4.583 3.208-2.36 0-4.662-.458-4.639-3.41H36.5a1.07 1.07 0 0 0 .252.862 1.169 1.169 0 0 0 .862.458c.71 0 1.228-.266 1.228-.88 0-1.7-5.692-.687-5.692-4.17 0-2.375 2.53-3.026 4.446-3.026 2.291 0 4.39.596 4.542 3.255h-3.451M44.654 29.209v-1.453l3.644-1.375v2.832h2.108v2.292h-2.108v3.809c0 .247-.156 1.49.687 1.49.468.008.937-.01 1.403-.056v2.164c-.645.123-1.3.188-1.957.192-2.475 0-3.97-.348-3.777-3.295v-4.304h-1.88v-2.292h1.88M63.152 29.113h1.834v9.625h-1.834v-9.625Zm-.174-4.226h2.177v1.98h-2.177v-1.98ZM67.91 29.112V27.06l1.833-.577v2.63l2.228-.06v1.376h-2.228v6.192c0 .687.536 1.013 1.192 1.013.324 0 .647-.038.962-.115v1.403c-.426 0-.83.114-1.251.114a6.957 6.957 0 0 1-1.233-.096 1.765 1.765 0 0 1-1.077-.632c-.325-.459-.422-.5-.422-1.783v-6.128l-1.654.023v-1.375l1.654.06M79.125 32.797c0-1.668-.096-2.649-2.04-2.649-.916 0-1.787.537-1.805 1.536h-1.92c.091-2.113 1.746-2.86 3.666-2.86s3.942.596 3.942 3.281v4.607c0 .426 0 1.233.078 2.035h-1.233c-.174 0-.5.096-.518-.133-.041-.459-.078-.862-.096-1.306h-.042a3.09 3.09 0 0 1-2.997 1.727c-1.673 0-3.364-.861-3.364-2.75 0-2.704 2.401-3.492 4.688-3.492l1.641.005Zm-1.833 1.27c-1.118.055-2.599.458-2.599 1.86 0 1.188.83 1.784 1.907 1.784 2.154 0 2.557-1.861 2.516-3.667h-1.833M82.792 24.887h1.833v13.86h-1.833v-13.86ZM86.88 29.113h1.834v9.625H86.88v-9.625Zm-.17-4.226h2.173v1.98h-2.172v-1.98ZM96.702 32.797c0-1.668-.096-2.649-2.04-2.649-.916 0-1.787.537-1.805 1.536h-1.925c.096-2.113 1.75-2.86 3.666-2.86s3.942.596 3.942 3.281v4.607c0 .426 0 1.233.078 2.035h-1.233c-.174 0-.5.096-.518-.133-.041-.459-.078-.862-.096-1.306h-.041a3.09 3.09 0 0 1-2.998 1.727c-1.673 0-3.364-.861-3.364-2.75 0-2.704 2.402-3.492 4.689-3.492l1.645.005Zm-1.833 1.27c-1.119.055-2.599.458-2.599 1.86 0 1.188.83 1.784 1.907 1.784 2.15 0 2.557-1.861 2.516-3.667H94.86M102.212 30.533h.036a3.356 3.356 0 0 1 2.924-1.71c.67 0 3.667.175 3.667 3.264v6.66h-1.833v-6.064c0-1.595-.674-2.457-2.209-2.457a2.5 2.5 0 0 0-1.77.71c-.27.267-.77.693-.77 2.572v5.239h-1.833v-9.625h1.792v1.42M112.194 34.287c-.138 1.687.554 3.433 2.42 3.433 1.425 0 2.136-.555 2.346-1.957h1.925c-.288 2.19-1.98 3.282-4.29 3.282-3.093 0-4.326-2.187-4.326-5.042 0-2.856 1.425-5.184 4.482-5.184 2.874.064 4.249 1.888 4.249 4.551v.917h-6.806Zm4.881-1.27c.041-1.613-.692-2.86-2.461-2.86-1.517 0-2.42 1.288-2.42 2.86h4.881Z" clip-rule="evenodd"/></svg>
